docs/img/svg/volume_off.svg

<svg width="16" height="16" viewBox="0 0 16 16" fill="none" xmlns="http://www.w3.org/2000/svg">
<path d="M11 8C11 6.82 10.32 5.80667 9.33333 5.31333V6.78667L10.9667 8.42C10.9867 8.28667 11 8.14667 11 8ZM12.6667 8C12.6667 8.62667 12.5333 9.21333 12.3067 9.76L13.3133 10.7667C13.7533 9.94 14 9 14 8C14 5.14667 12.0067 2.76 9.33333 2.15333V3.52667C11.26 4.1 12.6667 5.88667 12.6667 8ZM2.84667 2L2 2.84667L5.15333 6H2V10H4.66667L8 13.3333V8.84667L10.8333 11.68C10.3867 12.0267 9.88667 12.3 9.33333 12.4667V13.84C10.2533 13.6333 11.0867 13.2067 11.7933 12.6333L13.1533 14L14 13.1533L8 7.15333L2.84667 2ZM8 2.66667L6.60667 4.06L8 5.45333V2.66667Z" fill="white"/>
</svg>

<svg width="16" height="16" fill="none" xmlns="http://www.w3.org/2000/svg"><path d="M11 8a3 3 0 0 0-1.667-2.687v1.474l1.634 1.633c.02-.133.033-.273.033-.42Zm1.667 0c0 .627-.134 1.213-.36 1.76l1.006 1.007C13.753 9.94 14 9 14 8a5.998 5.998 0 0 0-4.667-5.847v1.374A4.67 4.67 0 0 1 12.667 8Zm-9.82-6L2 2.847 5.153 6H2v4h2.667L8 13.333V8.847l2.833 2.833c-.446.347-.946.62-1.5.787v1.373a5.992 5.992 0 0 0 2.46-1.207L13.153 14l.847-.847-6-6L2.847 2ZM8 2.667 6.607 4.06 8 5.453V2.667Z" fill="#fff"/></svg>
